svg/furkot/icomoon/radio-unchecked.svg

<svg viewBox="0 0 512 512" xmlns="http://www.w3.org/2000/svg"><path d="m256 0c-141.384 0-256 114.616-256 256s114.616 256 256 256 256-114.616 256-256-114.616-256-256-256zm0 448c-106.04 0-192-85.96-192-192s85.96-192 192-192 192 85.96 192 192-85.96 192-192 192z"/></svg>

<svg xmlns="http://www.w3.org/2000/svg" viewBox="0 0 512 512"><path d="M256 0C114.616 0 0 114.616 0 256S114.616 512 256 512 512 397.384 512 256 397.384 0 256 0ZM256 448C149.96 448 64 362.04 64 256S149.96 64 256 64C362.04 64 448 149.96 448 256S362.04 448 256 448Z"/></svg>
